X:1
T:Buxtehude - Aria:  La Capricciosa in G Minor.
%%score { ( 1 3 ) | 2 }
L:1/8
Q:1/4=100
M:4/4
K:G
V:1 treble nm="Harpsichord" snm="Hch."
V:3 treble 
V:2 bass 
V:1
"^Partita 7"!f! z/ ME/D/C/ B,2 z/ MA/G/=F/ E2 | z/ MB/A/G/ F2 z/ Te/d/c/ B2 | %2
 z/ A/B/c/ d2 z/ D/E/F/ G2 | z/ B/MA/G/ PG/A/G/F/ G2 PD/E/PF/G/ :: %4
[Q:1/4=100] z/ Pe/d/c/ B2 z/ Pa/g/=f/ e2 | z/ b/a/g/ f2 z/ d/e/Pf/ g2 | %6
 z/ A/B/c/ d2 z/ G/A/PB/ c2 | z/ B/MA/G/ d2[Q:1/4=90] z/ D/[Q:1/4=80]E/F/ G2[Q:1/4=5] :| %8
V:2
 G,,2 z/ A,/G,/=F,/ E,2 z/ D/C/B,/ | A,2 z/ E/D/C/ B,2 x2 | x2 z/ B,/A,/B,/ C2 z/ B,/A,/G,/ | %3
 D3 D, G,/A,/B,/C/ z2 :: G,,2 x6 | x8 | x2 z/ G,/A,/B,/ C2 z/ A,/B,/C/ | %7
 D2 z/ D,/E,/F,/ G,2 z/ B,,/C,/D,/ :| %8
V:3
 x8 | x6 z/ A/G/F/ | G2 x6 | x8 :: x2 z/ A/G/=F/ E2 z/ d/c/B/ | A2 z/ e/d/c/ B2 z/ D/E/F/ | G2 x6 | %7
 x8 :| %8

